X:1
T:As Mary Walked in the Garden Green
T:As Mary Walked in the Garden Green
T:George Pierce Grantham
T:George Pierce Grantham (1833–1885), alt.
T:Public Domain Courtesy of the Cyber Hymnal™
T:Public Domain Courtesy of the Cyber Hymnal™
C:George Pierce Grantham
Z:Public Domain
Z:Courtesy of the Cyber Hymnal™
%%score ( 1 2 ) ( 3 4 )
L:1/8
Q:1/4=105
M:4/4
K:F
V:1 treble 
V:2 treble 
V:3 bass 
V:4 bass 
V:1
 [Ec]2 | [FA]3 [FA] [FA]2 [FA][FB] | [Fc]3 [Dc] [Ec]2 [Ec]2 | [Ff]2 [Ff]>[Ff] ([Fe]>[Fe]) [Fd]2 | %4
w: 1.~As|Ma- ry walked in the|gar- den green Of|Jo- seph of Ari- * ma-|
w: 2.~As|Ma- ry came to the|tomb of stone, She|could not her grief * con-|
w: 3.~As|Ma- ry list- ened, she|gazed a- round, When,|dim in the morn- * ing|
w: 4.~As|Ma- ry heark- ened, her|name she heard: “O|Ma- ry!”— She turned * in|
w: 5.~As|Ma- ry mused up- on|things un- seen, She|learnt how the Lord * doth|
 [Fc]6 [Fc]2 | [^Fd]3 [Fd] [GB]2 ([Gd][Gd]) | c3 z c [FA]2 [Fc]2 | [FA]2 [FB][Fc] [FA]2 F2 | %8
w: thee, Fair|shrubs and flowers she *|passed * be- tween,|Tall palm and the wide|
w: tain: Now|full a- ware that~no *|Christ * was there,|Who late in the rock|
w: gloom, She|saw One stand with~a *|spade * in hand,|Full close to the sac-|
w: haste, And|joy shone out at~the *|gra- * cious word,|Which ev- er- y fear|
w: scan, And|claim each flower- et~and *|blos- * som green|Which blooms in the heart|
 [EG]6 (cB) | [FA]3 [FA] [FA]2 [DF][DG] | A3 (^C [=B,A]) [CA]2 [DF]2 | [DG][EG] [FA]2 [Fc]2 [EG]2 | %12
w: plane tree. *|’Twas ear- ly morn as|with spice * and balm|Full la- den she went,|
w: had lain. *|And bit- ter grief in|her soul * was stirred,|When hard by the grave’s|
w: red tomb. *|“Good sir, now tell, hast|thou borne * Him hence?|O say where He now|
w: ef- faced. *|“Rab- bo- ni! Lord!” ’Twas|her Mas- * ter good|She wel- comed with love’s|
w: of man. *|Fair buds of hope, and|of long- * ings nigh,|With pur- i- ty’s flower|
 [FA]6 [Fc]2 | [^Fd]3 [GB] [Gc]2 [=FA][FA] | [FB]3 [EG] A3 z B | [Fc]2 [Dd][DB] A2 [EG]2 | F6 z2 || %17
w: when lo!|She thought she heard in|an ac- cent *|calm A voice which she|seemed|
w: low cell|She felt right sure that|a voice she *|heard, A voice which she|knew|
w: doth lie!”|While lo! seemed borne to|her list- ening *|sense, From some bless- èd|bright|
w: sur- vey,|Who ’neath a gar- den-|er’s guise had *|stood, And seemed to her|soul|
w: of snow,|And glow- ing love with|its ver- meil *|dye, And char- i- ty’s|pur-|
"^Refrain" [FA]2 [FA][FA] [FA]2 B2 | [Fc]6 z2 | [Ff]2 [Ff][Ff] [Ge][Ge] [Gd]2 | [Ac]6 [Fc]2 | %21
w: to know: * * *||||
w: full well: * * *||||
w: One nigh: 1–4.~“I am the|Gar-|dener true! Mine are the vi-|o- lets|
w: to say: 5.~He is the|Gar-|dener true! His are the vi-|o- lets|
w: ple glow. * * *||||
 [Fd][Fd] [^Fd]2 [GB]2 [Ac][Bd] | c3 z c [FA]2 [FA]2 | [Ec]2 [Fc][Fc] [Fc]2 [Ec]2 | F6 |] %25
w: ||||
w: ||||
w: blue, The li- ly all white,|And * the rose|so bright, And pan- sy|of|
w: blue, The li- ly all white,|And * the rose|so bright, And pan- sy|of|
w: ||||
V:2
 x2 | x8 | x8 | x8 | x8 | x8 | G2 E2 x5 | x6 F2 | x6 E2 | x8 | D2 x7 | x8 | x8 | x8 | x4 E2 F2 x | %15
 x4 (CF) x2 | F6 x2 || x6 (FE) | x8 | x8 | x8 | x8 | G2 E2 x5 | x8 | F6 |] %25
V:3
 [C,C]2 | [F,C]3 [F,C] [F,C]2 [D,F,][D,F,] | [C,G,]3 [C,F,] [C,G,]2 [C,G,]2 | %3
 [A,,C]2 [A,,C]>[A,,C] ([B,,C]>[B,,C]) [D,B,]2 | [F,A,]6 [F,A,]2 | %5
 [D,A,]3 [D,D] [G,D]2 ([G,B,][G,B,]) | [E,C]2 [C,C]2 [F,C]2 [F,A,]2 x | %7
 [F,C]2 [G,C][A,C] [F,C]2 [D,=B,]2 | [C,C]6 [C,G,]2 | [F,A,]3 [E,G,] [D,F,]2 [D,F,][B,,D,] | %10
 [A,,E,]3 [A,,D,] [A,,E,]2 (F,A,) x | [G,B,][G,B,] [F,A,]2 (A,G,) [C,C]2 | [F,C]6 [F,A,]2 | %13
 (A,2 z) G, [E,C]2 [F,C][F,C] | [D,D]3 [D,B,] A,3 z F, | [A,,F,]2 [B,,F,][B,,G,] [C,A,]2 [C,B,]2 | %16
 [F,A,]6 z2 || [F,C]2 [F,C][F,C] [F,C]2 [G,B,]2 | A,6 z2 | [D,A,]2 [D,D][D,D] [E,C][E,C] [E,B,]2 | %20
 [F,A,]6 [F,A,]2 | [D,A,][D,A,] [D,D]2 [G,D]2 [G,C][G,B,] | [E,C]2 [C,C]2 [F,C]2 [D,D]2 x | %23
 [C,G,]2 [A,,C][A,,A,] [B,,G,]2 (G,B,) | [F,A,]6 |] %25
V:4
 x2 | x8 | x8 | x8 | x8 | x8 | x9 | x8 | x8 | x8 | x6 D,2 x | x4 C,2 x2 | x8 | D,3 D2 x3 | %14
 x4 ^C,2 D,2 x | x8 | x8 || x8 | A,6 x2 | x8 | x8 | x8 | x9 | x6 C,2 | x6 |] %25

